www/assets/icons/other_houses.svg

<svg xmlns="http://www.w3.org/2000/svg" width="24" height="24" viewBox="0 0 24 24" fill='currentColor'><path d="M12 3 1 11.4l1.21 1.59L4 11.62V21h16v-9.38l1.79 1.36L23 11.4zM8 15c-.55 0-1-.45-1-1s.45-1 1-1 1 .45 1 1-.45 1-1 1m4 0c-.55 0-1-.45-1-1s.45-1 1-1 1 .45 1 1-.45 1-1 1m4 0c-.55 0-1-.45-1-1s.45-1 1-1 1 .45 1 1-.45 1-1 1"/></svg>

<svg width="24" height="24" viewBox="0 0 24 24" xmlns="http://www.w3.org/2000/svg" fill='currentColor'><path d="M12 3L1 11.4L2.21 12.99L4 11.62V21H20V11.62L21.79 12.98L23 11.4L12 3ZM8 15C7.45 15 7 14.55 7 14C7 13.45 7.45 13 8 13C8.55 13 9 13.45 9 14C9 14.55 8.55 15 8 15ZM12 15C11.45 15 11 14.55 11 14C11 13.45 11.45 13 12 13C12.55 13 13 13.45 13 14C13 14.55 12.55 15 12 15ZM16 15C15.45 15 15 14.55 15 14C15 13.45 15.45 13 16 13C16.55 13 17 13.45 17 14C17 14.55 16.55 15 16 15Z"/></svg>
